X:74
T:Campbells are Comin', The
C:arr. Carlo Minasi
M:6/8
L:1/8
B:Chappell's One Hundred Scotch Melodies
B:Arranged for the Concertina by Carlo Minasi
Q:"Spiritoso  "3/8=100
Z:Peter Dunk 2012
K:D
!mf!D|(FAB) (AFD)|LF2 F F2 E|\
(FAB) (AFD)|L[E2C2A,2] [ECA,] [E2C2A,2] D|
%
FAB) (AFD)|(F>GF) ([dF][eA][fd])|(dBd) (AFD)|LF2 F F2||
%
A|[d2F2] [dF] ([dF]>[eA][fd])|[A2F2] [AF] ([AF]FD)|\
[d2F2] [dF] ([dF]>[eA][fd])|[B2G2] [BG] [B2G2] [AF]|
%
([AF]>[BG][cE]) ([dF]>[cA][BG])|\
([AF]>[BG][cE]) ([dF][eA][fd])|\
([dB][BG][dB]) ([AF]FD)|LF2 F F2||
%
D|(FAB) (AFD)|LF2 F F2 E|\
(FAB) (AFD)|L[E2C2A,2] [ECA,] [E2C2A,2] D|
%
FAB) (AFD)|(F>GF) ([dF][eA][fd])|\
([dB][BG][dB]) ([AF]FD)|LF2 F F2||

